!!!COM: Matthias Weckmann
!!!OPR: Es ist das Heil uns kommen her
!!!OTL: Secundus Versus.  Canon in hyperdiapente post minimam.
!!!YOR: From "Matthias Weckmann Choralbearbeitungen" edited by Werner Breig
!!!YOR: Baerenreiter Publisher, Kassel, 1979; p. 11.
**kern	**kern	**kern
*guida	*conseq	*CF
*k[]	*k[]	*k[]
*M4/4	*M4/4	*M4/4
*>[A,B,A,C]	*>[A,B,A,C]	*>[A,B,A,C]
*>norep[A,C]	*>norep[A,C]	*>norep[A,C]
*>A	*>A	*>A
=1-	=1-	=1-
2r	1r	1g
[2C	.	.
=2	=2	=2
4C]	2.G	2g
4D	.	.
4E	.	2g
4F	4A	.
=3	=3	=3
2.G	4B	2g
.	4c	.
.	[2d	2b-
8D	.	.
8E	.	.
=4	=4	=4
2.F	4d]	2a
.	8A	.
.	8B	.
.	[2c	2g
4E-	.	.
=5	=5	=5
4.D	4c]	1f
.	4B-	.
8En	.	.
4F	4.A	.
4D	.	.
.	8Bn	.
=6	=6	=6
4.C	4c	1r
.	4A	.
8D	.	.
8E	4.G	.
8D	.	.
8C	.	.
16BB	8A	.
16AA	.	.
=7	=7	=7
4GG	8B	1g
.	8A	.
2C	8G	.
.	16F	.
.	16E	.
.	4D	.
4BB	[4G	.
=8	=8	=8
4C	4G]	4e
4D	4F#	4d?
4E	4G	2c
4Fn	4A	.
=9	=9	=9
4.G	4B	2e
.	4c	.
8G	.	.
4F	4.d	2f
[4F	.	.
.	8d	.
=10	=10	=10
4F]	4c	2g
16E	2c	.
16D	.	.
16C	.	.
16BB	.	.
4AA	.	2a
4BB	16B	.
.	16A	.
.	16G	.
.	16F	.
=11	=11	=11
4C	4E	1g
8BB-	4F	.
8AA	.	.
4GG	4G	.
4AA	8F	.
.	8E	.
=12	=12	=12
4BB-	4D	1r
4GG	4E	.
4AA	4F	.
4BBn	4D	.
=13	=13	=13
2.C	4E	1g
.	4F	.
.	[2G	.
4D	.	.
=14	=14	=14
2.E	4G]	2g
.	4A	.
.	[2B	2g
4F	.	.
=15	=15	=15
2.G	4B]	2g
.	4c	.
.	[2d	2b-
8F	.	.
8E	.	.
=16	=16	=16
2.F	4d]	2a
.	8c	.
.	8B	.
.	[2c	2g
4E	.	.
=17	=17	=17
4F	4c]	1f
4D	4B	.
4.AA	4c	.
.	4A	.
8BB	.	.
=18	=18	=18
4.C	4.E	1r
8D	8F	.
4.E	4.G	.
8C	8A	.
=19	=19	=19
4G	4.B	1g
2GG	.	.
.	8G	.
.	4d	.
8FF	[4D	.
8GG	.	.
=20	=20	=20
2.AA	4D]	2e
.	8C	.
.	8D	.
.	[2E	2c
8GG	.	.
8FF	.	.
=21	=21	=21
2GG	4E]	2e
.	8D	.
.	8C	.
4FF	2D	2f
[4F	.	.
=22	=22	=22
8F]	4C	2g
8D	.	.
4E	4.c	.
4F	.	2a
.	8A	.
8E	4B	.
8D	.	.
=23	=23	=23
2.E	4c	1g
.	8B	.
.	8A	.
.	[2B	.
8D	.	.
8C	.	.
=24	=24	=24
4BB	4B]	1r
4C	8A	.
.	8G	.
4AA	4F#	.
4BB	4G	.
=25	=25	=25
2.C	4E	1g
.	4Fn	.
.	[2G	.
4D	.	.
=26	=26	=26
4E	4G]	2cc
4F	4A	.
[2G	4B	2b
.	4c	.
=27	=27	=27
4G]	2.d	2a
8F	.	.
8E	.	.
2D	.	2b
.	8c	.
.	8B	.
=28	=28	=28
4r	2A	2cc
4.F	.	.
.	4r	2a
8F	.	.
8E	[4c	.
8D	.	.
=29	=29	=29
4E	8c]	1g
.	8c	.
4.E	8B	.
.	8A	.
.	4B	.
8E	.	.
4D	[4B	.
=30	=30	=30
4C	8B]	1r
.	8B	.
4.C	4A	.
.	4G	.
8C	.	.
8BB	[4G	.
8AA	.	.
=31	=31	=31
4GG	8G]	1g
.	8G	.
4AA	8F	.
.	8E	.
4BB	4D	.
8AA	4E	.
8GG	.	.
=32	=32	=32
8AA	4F	2cc
8BB	.	.
2C	8E	.
.	8D	.
.	8E	2g
.	8F	.
4BB	[4G	.
=33	=33	=33
2.C	4G]	2a
.	4F	.
.	[2G	4e
4D	.	4f?
=34	=34	=34
2.E	4G]	2g
.	4A	.
.	[2B	2g
4D	.	.
=35	=35	=35
2.C	4B]	2.e
.	4A	.
.	[2G	.
8BB	.	4f?
8AA	.	.
=36	=36	=36
4GG	4G]	1g
4AA	8F	.
.	8E	.
4BB	4D	.
4C	4E	.
=37	=37	=37
4D	4F	1r
4E	4G	.
[2F	4A	.
.	4B	.
=38	=38	=38
4F]	2.c	1f
8FF	.	.
8GG	.	.
4.AA	.	.
.	8C	.
8BB	8D	.
=39	=39	=39
2.C	4.E	2e
.	8F	.
.	[2G	2d
4BB	.	.
=40	=40	=40
4AA	4G]	4e
8GG	4F	4f?
8FF	.	.
[2C	4E	2g
.	8D	.
.	8C	.
=41	=41	=41
4C]	2.G	2e
8BB-	.	.
8AA	.	.
[2BB-	.	2d
.	8F	.
.	8E	.
=42	=42	=42
4BB-]	2.F	[1c
8AA	.	.
8GG	.	.
4AA	.	.
4FF	8E	.
.	8D	.
*>B	*>B	*>B
!! First ending.
=43a	=43a	=43a
1C	4E	1c]
.	4C	.
.	2G	.
*>C	*>C	*>C
!! Second ending.
*^	*	*
=43b	=43b	=43b	=43b
2.C	2r	4E	1c_
.	.	4C	.
.	4r	2G	.
4C	4E	.	.
=44	=44	=44	=44
4FF	4F	4A	1c_
4EE	2C	4G	.
2FF	.	2A	.
.	[4F	.	.
=45	=45	=45	=45
[1CC	4F]	[1G	1c_
.	4F	.	.
.	4.E	.	.
.	8D	.	.
=46	=46	=46	=46
1CC]	1E	1G]	1c]
==	==	==	==
*-	*-	*-	*-
!!!CDT: 1621///-1674//
!!!OCY: Deutschland
!!!ODT: <1674
!!!AFR: organ chorale
!!!AST: polyphony
!!!AMT: simple quadruple
!!!AIN: organ
!!!YEP: David Huron and Denis Collins
!!!YEN: Canada
!!!EEV: 1.0
!!!RDT: 1995 April 29
!!!YED: 1995 August 31
